X: 24489
T: Lucy Farr's
R: jig
M: 6/8
K: Dmixolydian
DED DEG|A2G ABd|e2d d2B|B2A AGE|
DED DEG|A2G ABd|e2d BGE|1 DED D2E:|2 DED D2g||
|:~a3 aba|~g3 edB|deg edB|ded deg|
~a3 aba|~g3 edB|ged BGE|1 DED D2g:|2 DED D2E||

